_includes/icons/ios-video-call.svg

<svg fill="#666" height="50" viewBox="0 0 50 50" width="50" xmlns="http://www.w3.org/2000/svg"><path d="m5 9c-2.75 0-5 2.25-5 5v22c0 2.75 2.25 5 5 5h27c2.75 0 5-2.25 5-5v-5.34375l11.53125 6.21875 1.46875.8125v-25.375l-1.46875.8125-11.53125 6.21875v-5.34375c0-2.75-2.25-5-5-5zm0 2h27c1.667969 0 3 1.332031 3 3v22c0 1.667969-1.332031 3-3 3h-27c-1.667969 0-3-1.332031-3-3v-22c0-1.667969 1.332031-3 3-3zm43 4.65625v18.6875l-11-5.9375v-6.8125z"/></svg>

<svg xmlns="http://www.w3.org/2000/svg" viewBox="0 0 50 50" width="50" height="50" fill="#666"><path d="M 5 9 C 2.25 9 0 11.25 0 14 L 0 36 C 0 38.75 2.25 41 5 41 L 32 41 C 34.75 41 37 38.75 37 36 L 37 30.65625 L 48.53125 36.875 L 50 37.6875 L 50 12.3125 L 48.53125 13.125 L 37 19.34375 L 37 14 C 37 11.25 34.75 9 32 9 Z M 5 11 L 32 11 C 33.667969 11 35 12.332031 35 14 L 35 36 C 35 37.667969 33.667969 39 32 39 L 5 39 C 3.332031 39 2 37.667969 2 36 L 2 14 C 2 12.332031 3.332031 11 5 11 Z M 48 15.65625 L 48 34.34375 L 37 28.40625 L 37 21.59375 Z"/></svg>
